lib/icons-source/download.svg

<svg width="24" height="24" viewBox="0 0 24 24" fill="none" xmlns="http://www.w3.org/2000/svg">
<g clip-path="url(#clip0_8_10)">
<rect width="24" height="24" fill="white"/>
<path d="M24 17.1086V20.2961C24 22.364 22.3178 24.0461 20.25 24.0461H3.75C1.68219 24.0461 0 22.364 0 20.2961V17.1086C0 16.591 0.419678 16.1711 0.9375 16.1711C1.45532 16.1711 1.875 16.591 1.875 17.1086V20.2961C1.875 21.3301 2.71619 22.1711 3.75 22.1711H20.25C21.2838 22.1711 22.125 21.3301 22.125 20.2961V17.1086C22.125 16.591 22.5447 16.1711 23.0625 16.1711C23.5803 16.1711 24 16.591 24 17.1086ZM10.0549 19.4674C10.5861 20.0017 11.2934 20.296 12.0469 20.296C12.8004 20.296 13.5077 20.0017 14.0389 19.4674L18.3089 15.1723C18.8329 14.6451 18.9869 13.8604 18.7011 13.1732C18.4164 12.4889 17.7546 12.0465 17.0151 12.0465H15.9844C15.4666 12.0465 15.0469 12.4662 15.0469 12.984C15.0469 13.5018 15.4666 13.9215 15.9844 13.9215H16.9083L12.7094 18.1454C12.5327 18.3232 12.2974 18.421 12.0469 18.421C11.7964 18.421 11.5611 18.323 11.3844 18.1454L7.18542 13.9215H11.1094C12.1432 13.9215 12.9844 13.0805 12.9844 12.0465V0.984375C12.9844 0.466553 12.5647 0.046875 12.0469 0.046875C11.5291 0.046875 11.1094 0.466553 11.1094 0.984375V12.0465H7.07867C6.33911 12.0465 5.67737 12.4889 5.39264 13.1732C5.10681 13.8604 5.2608 14.6451 5.78485 15.1723L10.0549 19.4674Z" fill="black"/>
</g>
<defs>
<clipPath id="clip0_8_10">
<rect width="24" height="24" fill="white"/>
</clipPath>
</defs>
</svg>

<svg viewBox="0 0 24 24" fill="none" xmlns="http://www.w3.org/2000/svg"><rect fill="white"/><path d="M24 17.109v3.187a3.754 3.754 0 0 1-3.75 3.75H3.75A3.754 3.754 0 0 1 0 20.296V17.11a.938.938 0 0 1 1.875 0v3.187c0 1.034.841 1.875 1.875 1.875h16.5a1.877 1.877 0 0 0 1.875-1.875V17.11a.938.938 0 0 1 1.875 0m-13.945 2.358a2.8 2.8 0 0 0 1.992.829 2.8 2.8 0 0 0 1.992-.829l4.27-4.295a1.83 1.83 0 0 0 .392-1.999 1.82 1.82 0 0 0-1.686-1.126h-1.03a.937.937 0 1 0 0 1.874h.923l-4.199 4.224a.93.93 0 0 1-.662.276.93.93 0 0 1-.663-.276l-4.199-4.223h3.924a1.877 1.877 0 0 0 1.875-1.876V.985a.937.937 0 1 0-1.875 0v11.063H7.08a1.82 1.82 0 0 0-1.686 1.126 1.83 1.83 0 0 0 .392 2z" fill="black"/></svg>
